src/pos-icons/map-marker-check.svg

<svg height="24" viewBox="0 0 24 24" width="24" xmlns="http://www.w3.org/2000/svg"><path d="m12 2c3.86 0 7 3.14 7 7 0 5.25-7 13-7 13s-7-7.75-7-13c0-3.86 3.14-7 7-7m-1.53 12 6.53-6.59-1.4-1.41-5.13 5.18-2.07-2.09-1.4 1.41z"/></svg>

<?xml version="1.0" encoding="UTF-8"?><!DOCTYPE svg PUBLIC "-//W3C//DTD SVG 1.1//EN" "http://www.w3.org/Graphics/SVG/1.1/DTD/svg11.dtd"><svg xmlns="http://www.w3.org/2000/svg" xmlns:xlink="http://www.w3.org/1999/xlink" version="1.1" id="mdi-map-marker-check" width="24" height="24" viewBox="0 0 24 24"><path d="M12,2C15.86,2 19,5.14 19,9C19,14.25 12,22 12,22C12,22 5,14.25 5,9C5,5.14 8.14,2 12,2M10.47,14L17,7.41L15.6,6L10.47,11.18L8.4,9.09L7,10.5L10.47,14Z" /></svg>
